!!!OTL: Mahnung.
!!!OTL-incipit: BIST SCHON LANG MAI SCHATZERL GWESEN
!!!ARE: Europa, Mitteleuropa, Deutschland, Boehmen
!!!SCT: Z1231
!!!YEM: Copyright 1995, estate of Helmut Schaffrath.
**kern	**text
*ICvox	*
*M3/4	*
*k[b-e-]	*
*B-:	*
!LO:TX:a:t=Aus Böhmen.	!
{8f	Biſt
8dd	ſchon
=1	=1
(4dd	lang'
8cc)	.
8f	mai
8ee-	Schatʒerl
8cc	.
=2	=2
4cc	g'we-
4b-}	-ſen,
{8dd	hoſt
8ee-	ſchon
=3	=3
(4ff	lang'
8ee-)	.
8cc	mei
8gg	Herʒ
8ee-	er-
=4	=4
(4ee-	-freut,
4dd)}	.
{8f	Biſt
8dd	ſchon
=5	=5
(4dd	lang'
8cc)	.
8f	mai
8ee-	Schatʒerl
8cc	.
=6	=6
4cc	g'we-
4b-}	-ſen,
{8dd	hoſt
8ee-	ſchon
=7	=7
(4ff	lang'
8ee-)	.
8cc	mei
8gg	Herʒ
8ee-	er-
=8	=8
(4ee-	-freut,
4dd)}	.
{8dd	und
8ff	jetʒt
=9	=9
(4ff	muß
8ee-)	.
8cc	i
8gg	di
8ee-	ver-
=10	=10
4ee-	-loſ-
8ddL	-ſen,
8b-J}	.
{8ff	ei
8dd	pur
=11	=11
(4dd	weg'n
8cc)	.
8f	die
8ee-	fol-
8cc	-ſchen
=12	=12
(4cc	Leut',
4b-)}	.
{8dd	und
8ff	jetʒt
=13	=13
(4ff	muß
8ee-)	.
8cc	i
8gg	di
8ee-	ver-
=14	=14
4ee-	-loſ-
8ddL	-ſen,
8b-J}	.
{8ff	ei
8dd	pur
=15	=15
(4dd	weg'n
8cc)	.
8f	die
8ee-	fol-
8cc	-ſchen
=16	=16
(4cc	Leut'!
4b-)}	.
==	==
!!!AGN: Liebes - Lied, verlassene Liebe
!!!ONB: ESAC (Essen Associative Code) Database: ZUCCAL
!!!AMT: simple triple
!!!AIN: vox
!!!EED: Helmut Schaffrath
!!!EEV: 1.0
!!!GTL: V. Lieder der Minne.
!!!URL-scan: https://www.digitale-sammlungen.de/de/view/bsb11160573?page=443
!!!ENC: Anna Maria Matuszewska
!!!EEV: 2025/02/06
*-	*-
